X: 171
T:Prom Kut
G:song
B:Charles Haywood, Folk Songs of the World
M:C
L:1/8
Q:1/4=108
K:GMix
(D>F)|G2 G2 A>G (F>G)|A2 A2 D2  G2  | F2   F2 (D2 A2)|G2 G>G G>F D2 |
      F2 F2 F>G  F2  |D2 D2 D2 (F>G)|(F>G) A2  d2 c2 |A2 G2  G>G G2|]

from Transylvania around 1910:

